X: 7001
T: Couple Down Center
B: Henry Ford's "Good Morning"
Z: 2011 John Chambers <jc:trillian.mit.edu>
N: [What's the title of this waltz tune?]
R: waltz
M: 3/4
L: 1/8
K: C
V: 1 clef=treble
[E2C2] |\
"C"[E2C4]D2[E2C2] | "G7"[F2B,4]E2[F2D2] | "C"[G2E2][e3G3][cE] | [G6E6] |
w: First cou-ple down cen-ter and there they di-vide,
"G7"[A2G2][B3F3][AF] | [F6D6] | ([F2D2][A3D3])[GD] | "C"E6 | [E2C4]D2[E2C2] |
w: la-dy goes right, gent* goes left. Hon-or your
"G7"[F2B,4]E2[F2D2] | "C"[G2E2][e3G3][cE] | [G6E6] | "G7"[G2F2][B3F3][AF] | [F2D2][A3F3][GF] |
w: corn-er and don't be a-fraid, Swing to your part-ner and
"G7"[G2F2D2][A3D3][BF] | "C"[c2E2]z2"All Waltz"[c2G2E2] ||\
"F6"[c3A3F3]F[AF][dAF] | [c3A3F3] [AF][FD][AF] | "C"[G4E4][eG][cE] | [G4E4][cE][cE] |
w: waltz prom-e-nade ||
"G7"[e4B4F4][dF][BF] | [F4D4][BF][eF] |\
"C"[d4E4][cE][GE] | [E4C4][c2G2E2] |\
"F6"[c3A3F3]F[AF][dAF] | [c3A3F3] [AF][FD][AF] |
"C"[G4E4][eG][cE] | [G4E4][cE][cE] |\
"G7"[e4B4F4][GF][GF] | [e2B2F2]z2[d2B2F2] |\
[c6E6] | [c2G2E2]z2 |]
%
V: 2 clef=bass middle=d
z2 |\
[c2C2][g2e2][g2e2] | [d2D2][b2g2f2][b2g2f2] |\
[c2C2][c'2g2e2][c'2g2e2] | [c2C2][c'2g2e2][c'2g2e2] |
B2[b2g2f2][b2g2f2] | G2[b2g2f2][b2g2f2] |\
G2[b2g2f2][b2g2f2] | [c2C2][c'2g2e2][c'2g2e2] |\
[c2C2][g2e2][g2e2] | [d2D2][b2g2f2][b2g2f2] |\
[e2E2][c'2g2e2][c'2g2e2] | [c2C2][c'2g2e2][c'2g2e2] |\
[d2D2][b2g2f2][b2g2f2] | [g2G2][b2g2f2][b2g2f2] |
[g2G2][f2F2][d2D2] | [c2C2][d2D2][e2E2] ||\
[f2F2][d'2a2f2][d'2a2f2] | [f2F2][d'2a2f2][d'2a2f2] |\
[e2E2][c'2g2e2][c'2g2e2] | [c2C2][c'2g2e2][c'2g2e2] |
B2[b2g2f2][b2g2f2] | G2[b2g2f2][b2g2f2] |\
[c2C2][c'2g2e2][c'2g2e2] | c2d2e2 |
[f2F2][d'2a2f2][d'2a2f2] | [f2F2][d'2a2f2][d'2a2f2] |\
[e2E2][c'2g2e2][c'2g2e2] | [c2C2][c'2g2e2][c'2g2e2] |\
B2[b2g2f2][b2g2f2] | G2[b2g2f2][b2g2f2] |\
c2e2g2 | [c'2g2c2]z2 |]


%%sep 5 1 500

